assets/landing/benefits/actionable.svg

<svg width="40" height="40" viewBox="0 0 40 40" fill="none" xmlns="http://www.w3.org/2000/svg">
<path d="M35 10H30V5C29.9993 4.33716 29.7357 3.70166 29.267 3.23296C28.7983 2.76427 28.1628 2.50066 27.5 2.5H5C4.33716 2.50066 3.70166 2.76427 3.23296 3.23296C2.76427 3.70166 2.50066 4.33716 2.5 5V27.5C2.50066 28.1628 2.76427 28.7983 3.23296 29.267C3.70166 29.7357 4.33716 29.9993 5 30H10V35C10.0007 35.6628 10.2643 36.2983 10.733 36.767C11.2017 37.2357 11.8372 37.4993 12.5 37.5H35C35.6628 37.4993 36.2983 37.2357 36.767 36.767C37.2357 36.2983 37.4993 35.6628 37.5 35V12.5C37.4993 11.8372 37.2357 11.2017 36.767 10.733C36.2983 10.2643 35.6628 10.0007 35 10ZM27.5 27.5H17.5V21.25H27.5V27.5ZM27.5 18.75H17.5V12.5H27.5V18.75ZM15 18.75H5V12.5H15V18.75ZM27.5 5V10H5V5H27.5ZM5 27.5V21.25H15V27.5H5ZM35 35H12.5V30H27.5C28.1628 29.9993 28.7983 29.7357 29.267 29.267C29.7357 28.7983 29.9993 28.1628 30 27.5V12.5H35V35Z" fill="#03E2B3"/>
</svg>

<svg xmlns="http://www.w3.org/2000/svg" fill="#03E2B3" viewBox="0 0 40 40">
  <path stroke="none" d="M35 10h-5V5a2.5 2.5 0 0 0-2.5-2.5H5A2.5 2.5 0 0 0 2.5 5v22.5A2.5 2.5 0 0 0 5 30h5v5a2.5 2.5 0 0 0 2.5 2.5H35a2.5 2.5 0 0 0 2.5-2.5V12.5A2.5 2.5 0 0 0 35 10Zm-7.5 17.5h-10v-6.25h10v6.25Zm0-8.75h-10V12.5h10v6.25Zm-12.5 0H5V12.5h10v6.25ZM27.5 5v5H5V5h22.5ZM5 27.5v-6.25h10v6.25H5ZM35 35H12.5v-5h15a2.5 2.5 0 0 0 2.5-2.5v-15h5V35Z"/>
</svg>
